X:18
T:Christ est venu - C99
M:C
L:1/8
K:Bb
"Sib"B,2B,C D4|F2F2 "Dom"E4|C2CD E4|"Fa"G2G2 "Sib"F4|D2DE F2F2|"Mib"G8|"Dom"E4 G2G2|
"Fa"A8|"Sib"B4 B2d2|"Rem"A8|"Mib"G4 G4|"Sib"F8|"Mib"G4 G2B2|"Sib"F8|"Fa"E4 E4|"Sib"D8||
